X:114
T:Up In the Air
M:6/8
L:1/8
R:jig
K:Bmin
FBB BAB | cBc AFE | FBB BAB | cBA B2A |
FBB BAB | cBc ABc | def ecA |1 FBB B2A :|2 FBB B2c ||
d2d ede | fBB BAB | d2d ede | fBB B2c |
dcd ede | fdB def | gfe dBA | FBB B2c |
d2d ede | fBB BAB | d2d ede | fBB B2c |
dcd ede | fgf ede | fgf edB | FBB B2A |]
